!!!OTL: DIE REISE NACH SUEDLAND
!!!ARE: Europa, Mitteleuropa, Deutschland; Fankreich, Elsass
!!!SCT: E1430
!!!YEM: Copyright 1995, estate of Helmut Schaffrath.
**kern
*ICvox
*Ivox
*M3/4
*k[b-e-]
*B-:
{4f
=1
4b-
4b-
4cc
=2
4dd
4dd}
{8b-
8cc
=3
4.dd
8dd
8ee-
8dd
=4
2cc}
{8cc
8dd
=5
4.ee-
8gg
8ff
8ee-
=6
4.dd
8cc}
{8b-
8dd
=7
4cc
4b-
4a
=8
2ff}
{8cc
8dd
=9
4.ee-
8gg
8ff
8dd
=10
4.dd
8cc}
{8b-
8dd
=11
4cc
4b-
4a
=12
2b-}
==
!!!AGN: Staende -, Soldaten - Lied, Liebe, Abschied
!!!ONB: ESAC (Essen Associative Code) Database: ERK3
!!!AMT: simple triple
!!!AIN: vox
!!!EED: Helmut Schaffrath
!!!EEV: 1.0
*-
